assets/Stop sign/Flat/stop_sign_flat.svg

<svg xmlns="http://www.w3.org/2000/svg" width="32" height="32" fill="none"><path fill="#D3D3D3" d="M11.74 2h8.52c.99 0 1.93.39 2.63 1.09l6.02 6.02c.7.7 1.09 1.64 1.09 2.63v8.52c0 .99-.39 1.93-1.09 2.63l-6.02 6.02c-.7.7-1.64 1.09-2.63 1.09h-8.52c-.99 0-1.93-.39-2.63-1.09l-6.02-6.02c-.7-.7-1.09-1.64-1.09-2.63v-8.52c0-.99.39-1.93 1.09-2.63l6.02-6.02c.7-.7 1.64-1.09 2.63-1.09Z"/><path fill="#F8312F" d="M12.57 4h6.86c.99 0 1.93.39 2.63 1.09l4.85 4.85c.7.7 1.09 1.64 1.09 2.63v6.86c0 .99-.39 1.93-1.09 2.63l-4.85 4.85c-.7.7-1.64 1.09-2.63 1.09h-6.86c-.99 0-1.93-.39-2.63-1.09l-4.85-4.85c-.7-.7-1.09-1.64-1.09-2.63v-6.86c0-.99.39-1.93 1.09-2.63l4.85-4.85c.7-.7 1.64-1.09 2.63-1.09Z"/></svg>

<svg width="32" height="32" viewBox="0 0 32 32" fill="none" xmlns="http://www.w3.org/2000/svg">
<path d="M11.74 2H20.26C21.25 2 22.19 2.39 22.89 3.09L28.91 9.11C29.61 9.81 30 10.75 30 11.74V20.26C30 21.25 29.61 22.19 28.91 22.89L22.89 28.91C22.19 29.61 21.25 30 20.26 30H11.74C10.75 30 9.81 29.61 9.11 28.91L3.09 22.89C2.39 22.19 2 21.25 2 20.26V11.74C2 10.75 2.39 9.81 3.09 9.11L9.11 3.09C9.81 2.39 10.75 2 11.74 2Z" fill="#D3D3D3"/>
<path d="M12.57 4H19.43C20.42 4 21.36 4.39 22.06 5.09L26.91 9.94C27.61 10.64 28 11.58 28 12.57V19.43C28 20.42 27.61 21.36 26.91 22.06L22.06 26.91C21.36 27.61 20.42 28 19.43 28H12.57C11.58 28 10.64 27.61 9.94 26.91L5.09 22.06C4.39 21.36 4 20.42 4 19.43V12.57C4 11.58 4.39 10.64 5.09 9.94L9.94 5.09C10.64 4.39 11.58 4 12.57 4Z" fill="#F8312F"/>
</svg>
